assets/spark/icons/Whatsapp.svg

<svg viewBox="0 0 24 24" xmlns="http://www.w3.org/2000/svg">
<path fill-rule="evenodd" clip-rule="evenodd" d="M12.0402 2C6.55276 2 2.0804 6.45 2.0804 11.91C2.0804 13.66 2.54271 15.36 3.40704 16.86L2 22L7.27638 20.62C8.73367 21.41 10.3719 21.83 12.0402 21.83C17.5276 21.83 22 17.38 22 11.92C22 9.27 20.9648 6.78 19.0854 4.91C17.206 3.03 14.7035 2 12.0402 2ZM12.0101 3.66667C14.235 3.66667 16.3184 4.53641 17.896 6.11408C19.4636 7.69175 20.3333 9.78519 20.3333 12.0101C20.3333 16.6015 16.5914 20.3333 12 20.3333C10.5032 20.3333 9.03681 19.9389 7.76254 19.1703L7.45914 18.9984L4.3038 19.8277L5.1432 16.7532L4.94094 16.4296C4.11165 15.125 3.66667 13.5777 3.66667 12C3.67678 7.40858 7.40858 3.66667 12.0101 3.66667ZM8.51868 7.83333C8.35987 7.83333 8.09186 7.89218 7.86356 8.1374C7.64519 8.38261 7 8.98093 7 10.1678C7 11.3644 7.88342 12.512 7.9926 12.6787C8.13157 12.8455 9.73958 15.2976 12.2112 16.3373C12.7968 16.6021 13.2534 16.7492 13.6107 16.8571C14.1964 17.0435 14.7324 17.0141 15.1592 16.9552C15.6356 16.8866 16.6084 16.3667 16.8168 15.7978C17.0253 15.2289 17.0253 14.7483 16.9657 14.6404C16.8963 14.5423 16.7374 14.4835 16.4893 14.3756C16.2411 14.2383 15.0302 13.6498 14.8118 13.5713C14.5835 13.4928 14.4445 13.4536 14.2559 13.689C14.0971 13.9342 13.6207 14.4835 13.4817 14.6404C13.3328 14.8072 13.1938 14.8268 12.9556 14.7091C12.6975 14.5816 11.9035 14.3265 10.9704 13.5026C10.2359 12.8553 9.74951 12.0608 9.60062 11.8156C9.48151 11.5802 9.59069 11.433 9.70981 11.3252C9.81899 11.2173 9.97781 11.0407 10.0771 10.8936C10.2061 10.7563 10.2458 10.6484 10.3252 10.4914C10.4046 10.3247 10.3649 10.1874 10.3054 10.0697C10.2458 9.96177 9.74951 8.74552 9.54106 8.26491C9.34254 7.7941 9.14402 7.85295 8.98521 7.84314C8.84624 7.84314 8.68743 7.83333 8.51868 7.83333Z" />
</svg>

<svg viewBox="0 0 24 24" xmlns="http://www.w3.org/2000/svg">
  <path d="m12.04,2C6.55,2,2.08,6.45,2.08,11.91c0,1.75.46,3.45,1.33,4.95l-1.41,5.14,5.28-1.38c1.46.79,3.1,1.21,4.76,1.21,5.49,0,9.96-4.45,9.96-9.91,0-2.65-1.04-5.14-2.91-7.01-1.88-1.88-4.38-2.91-7.05-2.91Zm-.03,1.67c2.22,0,4.31.87,5.89,2.45,1.57,1.58,2.44,3.67,2.44,5.9,0,4.59-3.74,8.32-8.33,8.32-1.5,0-2.96-.39-4.24-1.16l-.3-.17-3.16.83.84-3.07-.2-.32c-.83-1.3-1.27-2.85-1.27-4.43.01-4.59,3.74-8.33,8.34-8.33Zm-3.49,4.17c-.16,0-.43.06-.66.3-.22.25-.86.84-.86,2.03s.88,2.34.99,2.51c.14.17,1.75,2.62,4.22,3.66.59.26,1.04.41,1.4.52.59.19,1.12.16,1.55.1.48-.07,1.45-.59,1.66-1.16.21-.57.21-1.05.15-1.16-.07-.1-.23-.16-.48-.26-.25-.14-1.46-.73-1.68-.8-.23-.08-.37-.12-.56.12-.16.25-.64.79-.77.95-.15.17-.29.19-.53.07-.26-.13-1.05-.38-1.99-1.21-.73-.65-1.22-1.44-1.37-1.69-.12-.24,0-.38.11-.49.11-.11.27-.28.37-.43.13-.14.17-.25.25-.4.08-.17.04-.3-.02-.42-.06-.11-.56-1.32-.76-1.8-.2-.47-.4-.41-.56-.42-.14,0-.3,0-.47,0Z"/>
</svg>
